dist/svgs/segment-full.svg

<!-- Generated by IcoMoon.io -->
<svg version="1.1" xmlns="http://www.w3.org/2000/svg" width="24" height="24" viewBox="0 0 24 24">
<title>segment-full</title>
<path d="M23 0h-15c-0.553 0-1 0.447-1 1v6h-6c-0.553 0-1 0.447-1 1v15c0 0.553 0.447 1 1 1h15c0.553 0 1-0.447 1-1v-6h6c0.553 0 1-0.447 1-1v-15c0-0.553-0.447-1-1-1zM15 22h-13v-13h5v7c0 0.553 0.447 1 1 1h7v5zM22 15h-5v-7c0-0.553-0.447-1-1-1h-7v-5h13v13z"></path>
</svg>

<svg xmlns="http://www.w3.org/2000/svg" width="24" height="24" viewBox="0 0 24 24"><title>segment-full</title><path d="M23 0H8a1 1 0 0 0-1 1v6H1a1 1 0 0 0-1 1v15a1 1 0 0 0 1 1h15a1 1 0 0 0 1-1v-6h6a1 1 0 0 0 1-1V1a1 1 0 0 0-1-1zm-8 22H2V9h5v7a1 1 0 0 0 1 1h7v5zm7-7h-5V8a1 1 0 0 0-1-1H9V2h13v13z"/></svg>
